Yosa-Max/actions/22x22/document-encrypt.svg

<?xml version="1.0" encoding="UTF-8"?>
<svg id="svg7" version="1.1" viewBox="0 0 22 22" xmlns="http://www.w3.org/2000/svg">
 <defs id="defs3">
  <style id="current-color-scheme" type="text/css">.ColorScheme-Text { color:#4d4d4d; } .ColorScheme-Highlight { color:#5294e2; } .ColorScheme-ButtonBackground { color:#d3dae3; }</style>
  <style id="current-color-scheme-35" type="text/css">.ColorScheme-Text { color:#4d4d4d; } .ColorScheme-Highlight { color:#5294e2; } .ColorScheme-ButtonBackground { color:#d3dae3; }</style>
  <style id="current-color-scheme-3" type="text/css">.ColorScheme-Text { color:#4d4d4d; } .ColorScheme-Highlight { color:#5294e2; } .ColorScheme-ButtonBackground { color:#d3dae3; }</style>
  <style id="current-color-scheme-6" type="text/css">.ColorScheme-Text { color:#4d4d4d; } .ColorScheme-Highlight { color:#5294e2; } .ColorScheme-ButtonBackground { color:#d3dae3; }</style>
 </defs>
 <path id="rect946" d="m10.955078 3a4 4 0 0 0-3.9999999 4v4h-1.9550781v8h12v-8h-2.044922v-4a4 4 0 0 0-4-4zm0 2a2 2 0 0 1 2 2v4h-3.9999999v-4a2 2 0 0 1 1.9999999-2zm-3.955078 8h8v4h-8v-4z" style="fill:#4d4d4d;paint-order:stroke fill markers"/>
</svg>

<?xml version="1.0" encoding="UTF-8" standalone="no"?>
<svg
   xmlns:dc="http://purl.org/dc/elements/1.1/"
   xmlns:cc="http://creativecommons.org/ns#"
   xmlns:rdf="http://www.w3.org/1999/02/22-rdf-syntax-ns#"
   xmlns:svg="http://www.w3.org/2000/svg"
   xmlns="http://www.w3.org/2000/svg"
   xmlns:sodipodi="http://sodipodi.sourceforge.net/DTD/sodipodi-0.dtd"
   xmlns:inkscape="http://www.inkscape.org/namespaces/inkscape"
   width="22"
   height="22"
   viewBox="0 0 22 22"
   version="1.1"
   id="svg7"
   sodipodi:docname="document-encrypted.svg"
   inkscape:version="0.92.2 2405546, 2018-03-11">
  <metadata
     id="metadata11">
    <rdf:RDF>
      <cc:Work
         rdf:about="">
        <dc:format>image/svg+xml</dc:format>
        <dc:type
           rdf:resource="http://purl.org/dc/dcmitype/StillImage" />
      </cc:Work>
    </rdf:RDF>
  </metadata>
  <sodipodi:namedview
     pagecolor="#ffffff"
     bordercolor="#666666"
     borderopacity="1"
     objecttolerance="10"
     gridtolerance="10"
     guidetolerance="10"
     inkscape:pageopacity="0"
     inkscape:pageshadow="2"
     inkscape:window-width="1366"
     inkscape:window-height="701"
     id="namedview9"
     showgrid="false"
     inkscape:zoom="22.136364"
     inkscape:cx="2.1457907"
     inkscape:cy="11"
     inkscape:window-x="0"
     inkscape:window-y="0"
     inkscape:window-maximized="1"
     inkscape:current-layer="svg7" />
  <defs
     id="defs3">
    <style
       type="text/css"
       id="current-color-scheme">
   .ColorScheme-Text { color:#4d4d4d; } .ColorScheme-Highlight { color:#5294e2; } .ColorScheme-ButtonBackground { color:#d3dae3; }
  </style>
    <style
       id="current-color-scheme-35"
       type="text/css">
   .ColorScheme-Text { color:#4d4d4d; } .ColorScheme-Highlight { color:#5294e2; } .ColorScheme-ButtonBackground { color:#d3dae3; }
  </style>
    <style
       type="text/css"
       id="current-color-scheme-3">
   .ColorScheme-Text { color:#4d4d4d; } .ColorScheme-Highlight { color:#5294e2; } .ColorScheme-ButtonBackground { color:#d3dae3; }
  </style>
    <style
       type="text/css"
       id="current-color-scheme-6">
   .ColorScheme-Text { color:#4d4d4d; } .ColorScheme-Highlight { color:#5294e2; } .ColorScheme-ButtonBackground { color:#d3dae3; }
  </style>
  </defs>
  <path
     style="opacity:1;fill:#4d4d4d;fill-opacity:1;stroke:none;stroke-width:2;stroke-linecap:square;stroke-linejoin:miter;stroke-miterlimit:4;stroke-dasharray:none;stroke-opacity:1;paint-order:stroke fill markers"
     id="path826"
     r="5"
     cy="6.8347459"
     cx="-0.82627177"
     d=""
     inkscape:connector-curvature="0" />
  <path
     style="opacity:1;fill:#4d4d4d;fill-opacity:1;stroke:none;stroke-width:2;stroke-linecap:square;stroke-linejoin:miter;stroke-miterlimit:4;stroke-dasharray:none;stroke-opacity:1;paint-order:stroke fill markers"
     d="M 10.955078 3 A 4 4 0 0 0 6.9550781 7 L 6.9550781 11 L 5 11 L 5 19 L 17 19 L 17 11 L 14.955078 11 L 14.955078 7 A 4 4 0 0 0 10.955078 3 z M 10.955078 5 A 2 2 0 0 1 12.955078 7 L 12.955078 11 L 8.9550781 11 L 8.9550781 7 A 2 2 0 0 1 10.955078 5 z M 7 13 L 15 13 L 15 17 L 7 17 L 7 13 z "
     id="rect946" />
</svg>
